src/images/svg/symbols/gold-usd.svg

<svg xmlns="http://www.w3.org/2000/svg" width="24" height="24"><g transform="translate(1.5 1.5)" fill="none" fill-rule="evenodd"><circle cx="6.75" cy="6.75" r="6.75" fill="#FFDA5B" fill-rule="nonzero"/><path fill="#FDF1CA" fill-rule="nonzero" d="M11.054 1.55a6.784 6.784 0 0 0-.939-.653L.897 10.115c.191.332.41.645.653.939l9.504-9.504zM3.258 12.527a6.734 6.734 0 0 1-1.331-1.055l9.545-9.545c.405.396.76.843 1.055 1.33l-9.27 9.27zm1.972.801a6.482 6.482 0 0 1-.621-.175l8.544-8.544c.068.203.127.41.175.62l-8.098 8.1z"/><g fill-rule="nonzero" transform="translate(.75 .75)"><circle cx="6" cy="6" r="5.484" fill="#FFC329"/><path fill="#F8B712" d="M6 11.484a5.484 5.484 0 0 0 4.844-8.056 10.893 10.893 0 0 0-7.416 7.417 5.46 5.46 0 0 0 2.572.64z"/></g><path fill="#DB9E43" fill-rule="nonzero" d="M10.833 3.089a5.483 5.483 0 0 0-7.745 7.744 5.484 5.484 0 1 1 7.746-7.744z"/><path fill="#FFF" fill-rule="nonzero" d="M7.5 14.25a6.75 6.75 0 1 1 13.5 0 6.75 6.75 0 0 1-13.5 0z"/><path fill="#F44336" d="M13.964 7.5c-1.3.075-2.5.518-3.5 1.225h7.79c-1-.707-2.2-1.15-3.5-1.225h-.791zm-4.82 2.45c-.31.375-.577.786-.8 1.224h12.03a6.705 6.705 0 0 0-.8-1.225H9.144zm-1.616 3.686c.037-.42.113-.83.223-1.225H20.74c.111.395.187.804.224 1.225H7.528zm.002 1.225c.04.42.118.83.231 1.224H20.73c.113-.394.191-.804.23-1.224H7.53zm1.53 3.674a6.711 6.711 0 0 1-.812-1.225h11.995a6.711 6.711 0 0 1-.812 1.225H9.06zm4.9 2.442h.02l.02.001a6.65 6.65 0 0 0 4.092-1.218h-7.693a6.66 6.66 0 0 0 3.561 1.217z"/><path fill="#283991" fill-rule="nonzero" d="M14.106 7.504a6.742 6.742 0 0 0-6.577 6.134h6.577V7.504z"/><path fill="#EFEFEF" fill-rule="nonzero" d="m8.85 11.314.103.316h.332l-.269.195.103.316-.269-.196-.269.196.102-.316-.269-.195h.333zm0 1.115.103.316h.332l-.269.196.103.316-.269-.196-.269.196.102-.316-.269-.196h.333zM9.968 9.64l.103.316h.332l-.269.195.103.316-.269-.195-.269.195.102-.316-.269-.195h.333zm0 1.116.103.316h.332l-.269.195.103.316-.269-.195-.269.195.102-.316-.269-.195h.333zm0 1.116.103.316h.332l-.269.195.103.316-.269-.196-.269.196.102-.316-.269-.195h.333zM8 12.699l-.102-.316.27-.196h-.333l-.008-.023a5.63 5.63 0 0 0-.1.343l.005-.004L8 12.7zm.58-1.674.27-.195.269.195-.103-.316.27-.195h-.334l-.102-.316-.103.316h-.123l-.067.104.126.091-.102.316zm1.388-1.869.269.195-.103-.315.27-.196h-.193a6.98 6.98 0 0 0-.472.387l-.04.124.269-.195zm.849-.362.269-.196.27.196-.104-.316.27-.196h-.333l-.014-.042a6.685 6.685 0 0 0-.334.18l.078.058-.102.316zm.269.288.103.316h.333l-.27.195.103.316-.269-.195-.269.195.102-.316-.269-.195h.333zm0 1.116.103.316h.333l-.27.195.103.316-.269-.195-.269.195.102-.316-.269-.195h.333zm0 1.116.103.316h.333l-.27.195.103.316-.269-.196-.269.196.102-.316-.269-.195h.333zm0 1.115.103.316h.333l-.27.196.103.316-.269-.196-.269.196.102-.316-.269-.196h.333zm1.118-3.905.103.316h.333l-.27.196.103.315-.269-.195-.269.195.103-.315-.27-.196h.333zm0 1.116.103.316h.333l-.27.195.103.316-.269-.195-.269.195.103-.316-.27-.195h.333zm0 1.116.103.316h.333l-.27.195.103.316-.269-.195-.269.195.103-.316-.27-.195h.333zm0 1.116.103.316h.333l-.27.195.103.316-.269-.196-.269.196.103-.316-.27-.195h.333zm1.118-3.905.103.315h.333l-.269.196.102.316-.269-.196-.269.196.103-.316-.27-.196h.333zm0 1.115.103.316h.333l-.269.195.102.316-.269-.195-.269.195.103-.316-.27-.195h.333zm0 1.116.103.316h.333l-.269.195.102.316-.269-.195-.269.195.103-.316-.27-.195h.333zm0 1.116.103.316h.333l-.269.195.102.316-.269-.196-.269.196.103-.316-.27-.195h.333zm0 1.115.103.316h.333l-.269.196.102.316-.269-.196-.269.196.103-.316-.27-.196h.333z"/></g></svg>

<svg xmlns="http://www.w3.org/2000/svg" width="24" height="24" viewBox="0 0 24 24">
    <g fill="none" fill-rule="evenodd">
        <g>
            <g>
                <g>
                    <g>
                        <g>
                            <g>
                                <g transform="translate(-200.000000, -2304.000000) translate(0.000000, 1653.000000) translate(16.000000, 603.000000) translate(91.000000, 16.000000) translate(0.000000, 32.000000) translate(93.000000, 0.000000) translate(1.500000, 1.500000)">
                                    <circle cx="6.75" cy="6.75" r="6.75" fill="#FFDA5B" fill-rule="nonzero"/>
                                    <path fill="#FDF1CA" fill-rule="nonzero" d="M11.054 1.55c-.294-.243-.607-.462-.939-.653L.897 10.115c.191.332.41.645.653.939l9.504-9.504zM3.258 12.527c-.488-.295-.935-.65-1.331-1.055l9.545-9.545c.405.396.76.843 1.055 1.33l-9.27 9.27zM5.23 13.328c-.211-.048-.418-.107-.621-.175l8.544-8.544c.068.203.127.41.175.62l-8.098 8.1z"/>
                                    <g fill-rule="nonzero" transform="translate(0.750000, 0.750000)">
                                        <circle cx="6" cy="6" r="5.484" fill="#FFC329"/>
                                        <path fill="#F8B712" d="M6 11.484c3.029 0 5.484-2.455 5.484-5.484 0-.93-.231-1.805-.64-2.572-3.57 1.033-6.383 3.847-7.416 7.417.767.408 1.642.64 2.572.64z"/>
                                    </g>
                                    <path fill="#DB9E43" fill-rule="nonzero" d="M10.833 3.089c-.97-.872-2.254-1.401-3.661-1.401-3.03 0-5.484 2.455-5.484 5.484 0 1.407.53 2.69 1.4 3.661C1.97 9.83 1.267 8.372 1.267 6.75c0-3.029 2.455-5.484 5.484-5.484 1.622 0 3.08.704 4.083 1.823z"/>
                                    <path fill="#FFF" fill-rule="nonzero" d="M7.5 14.25c0-3.728 3.022-6.75 6.75-6.75S21 10.522 21 14.25 17.978 21 14.25 21 7.5 17.978 7.5 14.25z"/>
                                    <path fill="#F44336" d="M13.964 7.5c-1.3.075-2.5.518-3.5 1.225h7.79c-1-.707-2.2-1.15-3.5-1.225H13.963zm-4.82 2.45c-.31.375-.577.786-.8 1.224h12.03c-.223-.438-.49-.849-.8-1.225H9.144zm-1.616 3.686c.037-.42.113-.83.223-1.225H20.74c.111.395.187.804.224 1.225H7.528zm.002 1.225c.04.42.118.83.231 1.224H20.73c.113-.394.191-.804.23-1.224H7.53zm1.53 3.674c-.314-.376-.586-.787-.812-1.225H20.243c-.226.438-.498.849-.812 1.225H9.06zm4.9 2.442h.02l.02.001c.082.003.163.005.245.005 1.43 0 2.755-.453 3.847-1.223H10.399c1.018.718 2.24 1.16 3.561 1.217z"/>
                                    <path fill="#283991" fill-rule="nonzero" d="M14.106 7.504c-3.457.07-6.274 2.739-6.577 6.134h6.577V7.504z"/>
                                    <path fill="#EFEFEF" fill-rule="nonzero" d="M8.85 11.314L8.953 11.63 9.285 11.63 9.016 11.825 9.119 12.141 8.85 11.945 8.581 12.141 8.683 11.825 8.414 11.63 8.747 11.63zM8.85 12.429L8.953 12.745 9.285 12.745 9.016 12.941 9.119 13.257 8.85 13.061 8.581 13.257 8.683 12.941 8.414 12.745 8.747 12.745zM9.968 9.64L10.071 9.956 10.403 9.956 10.134 10.151 10.237 10.467 9.968 10.272 9.699 10.467 9.801 10.151 9.532 9.956 9.865 9.956zM9.968 10.756L10.071 11.072 10.403 11.072 10.134 11.267 10.237 11.583 9.968 11.388 9.699 11.583 9.801 11.267 9.532 11.072 9.865 11.072zM9.968 11.872L10.071 12.188 10.403 12.188 10.134 12.383 10.237 12.699 9.968 12.503 9.699 12.699 9.801 12.383 9.532 12.188 9.865 12.188zM8 12.699l-.102-.316.27-.196h-.333l-.008-.023c-.037.113-.07.227-.1.343l.005-.004L8 12.7zM8.58 11.025l.27-.195.269.195-.103-.316.27-.195h-.334l-.102-.316-.103.316h-.123l-.067.104.126.091-.102.316zM9.968 9.156l.269.195-.103-.315.27-.196h-.193c-.163.122-.32.251-.472.387l-.04.124.269-.195zM10.817 8.794l.269-.196.27.196-.104-.316.27-.196h-.333l-.014-.042c-.113.057-.225.117-.334.18l.078.058-.102.316zM11.086 9.082L11.189 9.398 11.522 9.398 11.252 9.593 11.355 9.909 11.086 9.714 10.817 9.909 10.919 9.593 10.65 9.398 10.983 9.398zM11.086 10.198L11.189 10.514 11.522 10.514 11.252 10.709 11.355 11.025 11.086 10.83 10.817 11.025 10.919 10.709 10.65 10.514 10.983 10.514zM11.086 11.314L11.189 11.63 11.522 11.63 11.252 11.825 11.355 12.141 11.086 11.945 10.817 12.141 10.919 11.825 10.65 11.63 10.983 11.63zM11.086 12.429L11.189 12.745 11.522 12.745 11.252 12.941 11.355 13.257 11.086 13.061 10.817 13.257 10.919 12.941 10.65 12.745 10.983 12.745zM12.204 8.524L12.307 8.84 12.64 8.84 12.37 9.036 12.473 9.351 12.204 9.156 11.935 9.351 12.038 9.036 11.768 8.84 12.101 8.84zM12.204 9.64L12.307 9.956 12.64 9.956 12.37 10.151 12.473 10.467 12.204 10.272 11.935 10.467 12.038 10.151 11.768 9.956 12.101 9.956zM12.204 10.756L12.307 11.072 12.64 11.072 12.37 11.267 12.473 11.583 12.204 11.388 11.935 11.583 12.038 11.267 11.768 11.072 12.101 11.072zM12.204 11.872L12.307 12.188 12.64 12.188 12.37 12.383 12.473 12.699 12.204 12.503 11.935 12.699 12.038 12.383 11.768 12.188 12.101 12.188zM13.322 7.967L13.425 8.282 13.758 8.282 13.489 8.478 13.591 8.794 13.322 8.598 13.053 8.794 13.156 8.478 12.886 8.282 13.219 8.282zM13.322 9.082L13.425 9.398 13.758 9.398 13.489 9.593 13.591 9.909 13.322 9.714 13.053 9.909 13.156 9.593 12.886 9.398 13.219 9.398zM13.322 10.198L13.425 10.514 13.758 10.514 13.489 10.709 13.591 11.025 13.322 10.83 13.053 11.025 13.156 10.709 12.886 10.514 13.219 10.514zM13.322 11.314L13.425 11.63 13.758 11.63 13.489 11.825 13.591 12.141 13.322 11.945 13.053 12.141 13.156 11.825 12.886 11.63 13.219 11.63zM13.322 12.429L13.425 12.745 13.758 12.745 13.489 12.941 13.591 13.257 13.322 13.061 13.053 13.257 13.156 12.941 12.886 12.745 13.219 12.745z"/>
                                </g>
                            </g>
                        </g>
                    </g>
                </g>
            </g>
        </g>
    </g>
</svg>
